X: 37
T: Humours of Ennistymon
M: 6/8
L: 1/8
R: jig
K: Gmaj
A|:~B3 GBd|cBc ABc|~B3 GBd|cAG FGA|
|~B3 GBd|cBc ABc|ded cAF |1 AGF G2 A:|2 AGF G2 e||
|:~f3 fed|cAG FGA|G2g gfg|afd d2 e|
fag fed|cAG FGA|~B2d cAF|1 AGF G2 e:|2 AGF GBd||
|gdB gdB|ecA ecA|~B3 GBd|cAG FGA|
|gdB gdB|ecA ecA|~B3 GBd| cAF GBd|
|gdB gdB|ecA ecA|~B3 GBd|cAG FGA|
|~B3 GBd|cBc ABc|ded cAF |AGF G2 A||

